src/assets/outline/ReceiptMinus.svg

<svg width="24" height="24" viewBox="0 0 24 24"  xmlns="http://www.w3.org/2000/svg">
<path d="M19.42 11.75H16C15.59 11.75 15.25 11.41 15.25 11V4.01C15.25 3.27 15.54 2.58 16.06 2.06C16.58 1.54 17.27 1.25 18.01 1.25H18.02C19.27 1.26 20.45 1.75 21.35 2.64C22.25 3.55 22.74 4.75 22.74 6V8.42C22.75 10.41 21.41 11.75 19.42 11.75ZM16.75 10.25H19.42C20.58 10.25 21.25 9.58 21.25 8.42V6C21.25 5.14 20.91 4.32 20.3 3.7C19.69 3.1 18.87 2.76 18.02 2.75C18.02 2.75 18.02 2.75 18.01 2.75C17.68 2.75 17.36 2.88 17.12 3.12C16.88 3.36 16.75 3.67 16.75 4.01V10.25Z" />
<path d="M8.99976 23.33C8.52976 23.33 8.08977 23.15 7.75977 22.81L6.09976 21.14C6.00976 21.05 5.86976 21.04 5.76976 21.12L4.05976 22.4C3.52976 22.8 2.82977 22.87 2.22977 22.57C1.62977 22.27 1.25977 21.67 1.25977 21V6C1.25977 2.98 2.98977 1.25 6.00977 1.25H18.0098C18.4198 1.25 18.7598 1.59 18.7598 2C18.7598 2.41 18.4198 2.75 18.0098 2.75C17.3198 2.75 16.7598 3.31 16.7598 4V21C16.7598 21.67 16.3898 22.27 15.7898 22.57C15.1898 22.87 14.4898 22.81 13.9598 22.41L12.2498 21.13C12.1498 21.05 12.0098 21.07 11.9298 21.15L10.2498 22.83C9.90976 23.15 9.46976 23.33 8.99976 23.33ZM5.90977 19.57C6.36977 19.57 6.81977 19.74 7.15977 20.09L8.81976 21.76C8.87976 21.82 8.95976 21.83 8.99976 21.83C8.98976 21.81 9.11976 21.82 9.17976 21.76L10.8598 20.08C11.4798 19.46 12.4598 19.4 13.1498 19.93L14.8498 21.2C14.9598 21.28 15.0598 21.25 15.1098 21.22C15.1598 21.19 15.2498 21.13 15.2498 21V4C15.2498 3.55 15.3598 3.12 15.5498 2.75H5.99976C3.77976 2.75 2.74976 3.78 2.74976 6V21C2.74976 21.14 2.83976 21.2 2.88976 21.23C2.94976 21.26 3.04976 21.28 3.14977 21.2L4.85976 19.92C5.16976 19.69 5.53977 19.57 5.90977 19.57Z" />
<path d="M11.75 10.75H6.25C5.84 10.75 5.5 10.41 5.5 10C5.5 9.59 5.84 9.25 6.25 9.25H11.75C12.16 9.25 12.5 9.59 12.5 10C12.5 10.41 12.16 10.75 11.75 10.75Z" />
</svg>

<?xml version="1.0" encoding="UTF-8"?>
<svg width="24" height="24" viewBox="0 0 24 24" xmlns="http://www.w3.org/2000/svg">
 <path d="m19.42 11.75h-3.42c-0.41 0-0.75-0.34-0.75-0.75v-6.99c0-0.74 0.29-1.43 0.81-1.95s1.21-0.81 1.95-0.81h0.01c1.25 0.01 2.43 0.5 3.33 1.39 0.9 0.91 1.39 2.11 1.39 3.36v2.42c0.01 1.99-1.33 3.33-3.32 3.33zm-2.67-1.5h2.67c1.16 0 1.83-0.67 1.83-1.83v-2.42c0-0.86-0.34-1.68-0.95-2.3-0.61-0.6-1.43-0.94-2.28-0.95h-0.01c-0.33 0-0.65 0.13-0.89 0.37s-0.37 0.55-0.37 0.89v6.24z"/>
 <path d="m8.9998 23.33c-0.47 0-0.90999-0.18-1.24-0.52l-1.66-1.67c-0.09-0.09-0.23-0.1-0.33-0.02l-1.71 1.28c-0.53 0.4-1.23 0.47-1.83 0.17s-0.97-0.9-0.97-1.57v-15c0-3.02 1.73-4.75 4.75-4.75h12c0.41 0 0.75 0.34 0.75 0.75s-0.34 0.75-0.75 0.75c-0.69 0-1.25 0.56-1.25 1.25v17c0 0.67-0.37 1.27-0.97 1.57s-1.3 0.24-1.83-0.16l-1.71-1.28c-0.1-0.08-0.24-0.06-0.32 0.02l-1.68 1.68c-0.34004 0.32-0.78004 0.5-1.25 0.5zm-3.09-3.76c0.46 0 0.91 0.17 1.25 0.52l1.66 1.67c0.06 0.06 0.14 0.07 0.18 0.07-0.01-0.02 0.12-0.01 0.18-0.07l1.68-1.68c0.62-0.62 1.6-0.68 2.29-0.15l1.7 1.27c0.11 0.08 0.21 0.05 0.26 0.02s0.14-0.09 0.14-0.22v-17c0-0.45 0.11-0.88 0.3-1.25h-9.55c-2.22 0-3.25 1.03-3.25 3.25v15c0 0.14 0.09 0.2 0.14 0.23 0.06 0.03 0.16 0.05 0.26001-0.03l1.71-1.28c0.31-0.23 0.68001-0.35 1.05-0.35z"/>
 <path d="m11.75 10.75h-5.5c-0.41 0-0.75-0.34-0.75-0.75s0.34-0.75 0.75-0.75h5.5c0.41 0 0.75 0.34 0.75 0.75s-0.34 0.75-0.75 0.75z"/>
</svg>
